X: 1
T: Sheila Coyle's
R: reel
M: 4/4
L: 1/8
K: Dmaj
FA(3AAA FADF|ADFA BAFD|GBBA B(3BBBG|ABdf edBA|
FA(3AAA FADF|ADFA BAFD|GB(3BBB AFDF|EFGE FDD2:|
|:dffe fgfe|dcdB AFDF|Ac(3ccc ecAc|B(3BBBA BAFA|
dffe fgfe|dcdB AFDF|GB(3BBB AFDF|EFGE FDD2:|
"variations"
|:FA(3AAA FADF|ADFA BAGF|GB(3BBB BcBG|ABdf edBA|
FA(3AAA FADF|ADFA BAGF|GABd AF(3FFF|E(3EEEG FDD2:|
|:dffe fgfe|dBAB ADFA|ceec e2ec|B2dA BAFA|
dffe fgfe|dBAB AFDF|GABd AF(3FFF|E(3EEEG FDD2:|


Tune 1040	Setting 23271

